icons/evolvere-blue-folders-flat-vivid-dark-fallback/mimetypes/64/package-tar.lrz.svg

<?xml version="1.0" encoding="UTF-8" standalone="no"?>
<!-- Created with Inkscape (http://www.inkscape.org/) -->

<svg
   xmlns:dc="http://purl.org/dc/elements/1.1/"
   xmlns:cc="http://creativecommons.org/ns#"
   xmlns:rdf="http://www.w3.org/1999/02/22-rdf-syntax-ns#"
   xmlns:svg="http://www.w3.org/2000/svg"
   xmlns="http://www.w3.org/2000/svg"
   xmlns:sodipodi="http://sodipodi.sourceforge.net/DTD/sodipodi-0.dtd"
   xmlns:inkscape="http://www.inkscape.org/namespaces/inkscape"
   version="1.1"
   width="64"
   height="64"
   id="svg13094"
   inkscape:version="0.91+devel r"
   sodipodi:docname="package-tar.lrz.svg">
  <sodipodi:namedview
     pagecolor="#ffffff"
     bordercolor="#666666"
     borderopacity="1"
     objecttolerance="10"
     gridtolerance="10"
     guidetolerance="10"
     inkscape:pageopacity="0"
     inkscape:pageshadow="2"
     inkscape:window-width="1920"
     inkscape:window-height="1023"
     id="namedview44"
     showgrid="false"
     inkscape:zoom="10.429825"
     inkscape:cx="4.5755331"
     inkscape:cy="29.960809"
     inkscape:window-x="-10"
     inkscape:window-y="35"
     inkscape:window-maximized="1"
     inkscape:current-layer="svg13094" />
  <defs
     id="defs11" />
  <metadata
     id="metadata13099">
    <rdf:RDF>
      <cc:Work
         rdf:about="">
        <dc:format>image/svg+xml</dc:format>
        <dc:type
           rdf:resource="http://purl.org/dc/dcmitype/StillImage" />
        <dc:title></dc:title>
      </cc:Work>
    </rdf:RDF>
  </metadata>
  <path
     d="M 0,1 2,0 62,0 64,1 64,17 0,17 Z"
     id="path3029"
     style="fill:#d8bd6f;fill-opacity:1;fill-rule:nonzero"
     inkscape:connector-curvature="0"
     sodipodi:nodetypes="ccccccc" />
  <path
     d="m 0,16 64,0 0,46 -2,2 -60,0 -2,-2 z"
     id="path3809"
     style="color:#000000;display:inline;overflow:visible;visibility:visible;fill:#a07c46;fill-opacity:1;fill-rule:nonzero;stroke-width:1;stroke-linecap:butt;stroke-linejoin:miter;stroke-miterlimit:4;stroke-dasharray:none;stroke-dashoffset:0;stroke-opacity:1;marker:none;enable-background:accumulate"
     inkscape:connector-curvature="0"
     sodipodi:nodetypes="ccccccc" />
  <path
     d="m 0,16 64,0 0,46 -2,2 -60,0 -2,-2 z"
     id="path3831"
     style="fill:#a6854c;fill-opacity:1;fill-rule:nonzero"
     inkscape:connector-curvature="0"
     sodipodi:nodetypes="ccccccc" />
  <path
     d="m 0,62 2,2 30,0 0,-24 -32,0 z"
     id="path3847"
     style="fill:#9c7a44;fill-opacity:1;fill-rule:nonzero;opacity:1;stroke-width:1;stroke-linecap:butt;stroke-linejoin:miter;stroke-miterlimit:4;stroke-dasharray:none;stroke-dashoffset:0;stroke-opacity:1"
     inkscape:connector-curvature="0"
     sodipodi:nodetypes="cccccc" />
  <path
     d="m 64,62 -2,2 -30,0 0,-24 32,0 z"
     id="path3835"
     style="fill:#9c7a44;fill-opacity:1;fill-rule:nonzero;opacity:1;stroke-width:1;stroke-linecap:butt;stroke-linejoin:miter;stroke-miterlimit:4;stroke-dasharray:none;stroke-dashoffset:0;stroke-opacity:1"
     inkscape:connector-curvature="0"
     sodipodi:nodetypes="cccccc" />
  <path
     d="m 0,16 32,0 0,24 -32,0 z"
     id="path3839"
     style="fill:#9c7a44;fill-opacity:1;fill-rule:nonzero;opacity:1;stroke-width:1;stroke-linecap:butt;stroke-linejoin:miter;stroke-miterlimit:4;stroke-dasharray:none;stroke-dashoffset:0;stroke-opacity:1"
     inkscape:connector-curvature="0"
     sodipodi:nodetypes="ccccc" />
  <path
     d="m 64,16 -32,0 0,24 32,0 z"
     id="path3843"
     style="fill:#9c7a44;fill-opacity:1;fill-rule:nonzero;opacity:1;stroke-width:1;stroke-linecap:butt;stroke-linejoin:miter;stroke-miterlimit:4;stroke-dasharray:none;stroke-dashoffset:0;stroke-opacity:1"
     inkscape:connector-curvature="0"
     sodipodi:nodetypes="ccccc" />
  <path
     d="m 64,16 -32,0 0,-7.846939 32,0 z"
     id="path3813"
     style="fill:#d7b871;fill-opacity:1;fill-rule:nonzero"
     inkscape:connector-curvature="0"
     sodipodi:nodetypes="ccccc" />
  <path
     d="m 0,16 32,0 0,-7.846939 -32,0 z"
     id="path3811"
     style="fill:#d2b164;fill-opacity:1;fill-rule:nonzero"
     inkscape:connector-curvature="0"
     sodipodi:nodetypes="ccccc" />
  <path
     d="m 64,1 -2,-1 -30,0 0,8.153061 32,0 z"
     id="path3815"
     style="fill:#d2b164;fill-opacity:1;fill-rule:nonzero"
     inkscape:connector-curvature="0"
     sodipodi:nodetypes="cccccc" />
  <path
     d="m 0,1 2,-1 30,0 0,8.153061 -32,0 z"
     id="path3960"
     style="fill:#d7b871;fill-opacity:1;fill-rule:nonzero"
     inkscape:connector-curvature="0"
     sodipodi:nodetypes="cccccc" />
  <path
     d="m 64,18 -2,-2 2,-1 z"
     id="path3028"
     style="fill:#ba9c59;fill-opacity:1"
     inkscape:connector-curvature="0"
     sodipodi:nodetypes="cccc" />
  <path
     d="M 0,18 2,16 0,15 Z"
     id="path3028-3"
     style="fill:#dbc071;fill-opacity:1"
     inkscape:connector-curvature="0"
     sodipodi:nodetypes="cccc" />
  <path
     sodipodi:nodetypes="ccccsccccccccccccccccccccccccscccccccccccscccccccccccccccccccccccccccccccccccscccccccccccccccc"
     inkscape:connector-curvature="0"
     id="path3146"
     d="m 28.28125,20 0,14.09375 2.5625,0 0,-6.03125 2.1875,0 c 0.61439,0 0.98494,-0.0064 1.09375,0 0.14719,0.2432 0.53545,1.02537 1.15625,2.34375 l 1.625,3.6875 2.84375,0 L 37.65625,29.75 c -0.51201,-1.05598 -0.93566,-1.76585 -1.28125,-2.15625 1.69597,-0.58879 2.53124,-1.81871 2.53125,-3.6875 -1e-5,-0.63358 -0.07721,-1.19544 -0.25,-1.65625 -0.16641,-0.46718 -0.39311,-0.83699 -0.6875,-1.125 C 37.68074,20.83702 37.28608,20.60391 36.8125,20.4375 36.3453,20.26472 35.86854,20.15776 35.34375,20.09375 34.82535,20.02976 34.21039,20.00001 33.5,20 z M 42,20 l 0,7 4,0 0,-1 -2.6875,-0.03125 0,-5.9375 z m 5,0 0,7 1.28125,0 0,-3 1.375,0 c 0.304565,0 0.508566,-0.0032 0.5625,0 0.07296,0.12056 0.254756,0.5027 0.5625,1.15625 L 51.59375,27 53,27 51.9375,24.84375 c -0.253811,-0.523474 -0.453685,-0.868968 -0.625,-1.0625 0.84073,-0.291874 1.249994,-0.917351 1.25,-1.84375 -6e-6,-0.314081 -0.0081,-0.584068 -0.09375,-0.8125 -0.0825,-0.231593 -0.229066,-0.419727 -0.375,-0.5625 -0.142771,-0.14276 -0.327733,-0.261252 -0.5625,-0.34375 C 51.299648,20.1331 51.072647,20.094232 50.8125,20.0625 50.555517,20.03079 50.227153,20 49.875,20 z m -41.75,0.03125 0,2.09375 4.09375,0 0,11.96875 2.625,0 0,-11.96875 4.0625,0 0,-2.09375 z m 14.34375,0 -5.1875,14.0625 2.71875,0 1.40625,-3.96875 4.9375,0 1.375,3.96875 2.6875,0 -5.09375,-14.0625 z m 34.3125,0 0,1.03125 3.5625,0 -3.71875,5.09375 0,0.84375 5.25,0 0,-1.03125 -3.625,0 3.59375,-5.03125 0,-0.90625 z m -5.625,0.90625 1.78125,0 c 0.450504,6e-6 0.781088,0.0882 1,0.25 0.218903,0.161808 0.343745,0.438616 0.34375,0.78125 -5e-6,0.390233 -0.128019,0.634839 -0.34375,0.8125 C 50.84676,22.955747 50.494919,23.062501 50,23.0625 l -1.03125,0 c -0.42513,-0.0032 -0.639913,4e-6 -0.6875,0 z m -17.4375,1 3,0 c 0.90878,10e-6 1.58965,0.14236 2.03125,0.46875 0.44159,0.32641 0.65624,0.84007 0.65625,1.53125 -1e-5,0.7872 -0.22106,1.36036 -0.65625,1.71875 -0.4352,0.35201 -1.15787,0.53126 -2.15625,0.53125 l -1.4375,0 c -0.8576,-0.0064 -1.34151,10e-6 -1.4375,0 z m -9.8125,0.53125 c 0.03199,0.12161 0.62925,2.02599 1.78125,5.71875 l -3.625,0 z"
     style="color:#000000;fill:#efe3b6;fill-opacity:1;fill-rule:nonzero;stroke-width:1;stroke-linecap:butt;stroke-linejoin:miter;stroke-miterlimit:4;stroke-opacity:1;stroke-dasharray:none;stroke-dashoffset:0;marker:none;visibility:visible;display:inline;overflow:visible;enable-background:accumulate;opacity:1" />
  <path
     style="color:#000000;fill:#642400;fill-opacity:0.14042933;fill-rule:nonzero;stroke-width:1;stroke-linecap:butt;stroke-linejoin:miter;stroke-miterlimit:4;stroke-opacity:1;stroke-dasharray:none;stroke-dashoffset:0;marker:none;visibility:visible;display:inline;overflow:visible;enable-background:accumulate;opacity:1"
     d="M 43.3125 21 L 43.3125 25.96875 L 44.3125 25.96875 L 44.3125 21.03125 L 43.3125 21 z M 48.28125 21 L 48.28125 23.0625 C 48.328837 23.062504 48.54362 23.0593 48.96875 23.0625 L 49.28125 23.0625 L 49.28125 21.9375 L 51.0625 21.9375 C 51.192714 21.937502 51.295874 21.954365 51.40625 21.96875 C 51.406245 21.626116 51.281403 21.349308 51.0625 21.1875 C 50.953044 21.1066 50.822573 21.042274 50.65625 21 L 48.28125 21 z M 16.03125 21.03125 L 16.03125 22.125 L 11.96875 22.125 L 11.96875 34.09375 L 10.34375 34.09375 L 10.34375 35.09375 L 12.96875 35.09375 L 12.96875 23.125 L 17.03125 23.125 L 17.03125 21.03125 L 16.03125 21.03125 z M 22.8125 21.03125 L 27.53125 34.09375 L 25.5 34.09375 L 25.84375 35.09375 L 28.53125 35.09375 L 23.4375 21.03125 L 22.8125 21.03125 z M 58.90625 21.03125 L 58.15625 22.0625 L 58.46875 22.0625 L 55.625 25.96875 L 57.09375 25.96875 L 59.96875 21.9375 L 59.96875 21.03125 L 58.90625 21.03125 z M 54.90625 21.0625 L 54.90625 22.0625 L 56.75 22.0625 L 57.46875 21.0625 L 54.90625 21.0625 z M 52.5 21.21875 C 52.558469 21.427347 52.562495 21.663449 52.5625 21.9375 C 52.562498 22.279323 52.487556 22.554258 52.375 22.8125 C 52.381794 22.865721 52.406249 22.911644 52.40625 22.96875 C 52.406245 23.358983 52.278231 23.603589 52.0625 23.78125 C 51.92793 23.890095 51.710922 23.953338 51.46875 24 C 51.606144 24.202474 51.752726 24.462661 51.9375 24.84375 L 53 27 L 52.15625 27 L 52.59375 28 L 54 28 L 52.9375 25.84375 C 52.683689 25.320276 52.483815 24.974782 52.3125 24.78125 C 53.15323 24.489376 53.562494 23.863899 53.5625 22.9375 C 53.562494 22.623419 53.5544 22.353432 53.46875 22.125 C 53.38625 21.893407 53.239684 21.705273 53.09375 21.5625 C 52.950979 21.41974 52.766017 21.301248 52.53125 21.21875 C 52.521451 21.215126 52.509785 21.222209 52.5 21.21875 z M 38.40625 21.71875 C 38.500217 21.884335 38.584981 22.049919 38.65625 22.25 C 38.82904 22.71081 38.90624 23.27267 38.90625 23.90625 C 38.90624 25.77504 38.07097 27.00496 36.375 27.59375 C 36.72059 27.98415 37.14424 28.69402 37.65625 29.75 L 39.75 34.09375 L 37.46875 34.09375 L 37.90625 35.09375 L 40.75 35.09375 L 38.65625 30.75 C 38.14424 29.69402 37.72059 28.98415 37.375 28.59375 C 39.07097 28.00496 39.90624 26.77504 39.90625 24.90625 C 39.90624 24.27267 39.82904 23.71081 39.65625 23.25 C 39.48984 22.78282 39.26314 22.41301 38.96875 22.125 C 38.810903 21.96717 38.6236 21.84167 38.40625 21.71875 z M 30.84375 21.9375 L 30.84375 26.1875 C 30.910526 26.187507 31.406311 26.187233 31.84375 26.1875 L 31.84375 22.9375 L 34.84375 22.9375 C 35.479142 22.937507 35.997563 23.002828 36.40625 23.15625 C 36.300108 22.84609 36.129213 22.594156 35.875 22.40625 C 35.4334 22.07986 34.75253 21.93751 33.84375 21.9375 L 30.84375 21.9375 z M 6.25 22.125 L 6.25 23.125 L 9.34375 23.125 L 9.34375 22.125 L 6.25 22.125 z M 21.03125 22.46875 L 19.1875 28.1875 L 20.5 28.1875 L 21.6875 24.5625 C 21.524588 24.039205 21.042969 22.513299 21.03125 22.46875 z M 48.28125 24 L 48.28125 27 L 48 27 L 48 28 L 49.28125 28 L 49.28125 25 L 50.65625 25 C 50.690091 25 50.68746 25.000066 50.71875 25 C 50.494466 24.524899 50.319154 24.183968 50.25 24.0625 L 49.96875 24.0625 C 49.54362 24.0593 49.328837 24.062504 49.28125 24.0625 L 49.28125 24 L 48.28125 24 z M 59 26.96875 L 59 27 L 54.875 27 L 54.75 27.15625 L 54.75 28 L 60 28 L 60 26.96875 L 59 26.96875 z M 43 27 L 43 28 L 47 28 L 47 27 L 46 27 L 43 27 z M 30.84375 28.0625 L 30.84375 34.09375 L 29.28125 34.09375 L 29.28125 35.09375 L 31.84375 35.09375 L 31.84375 29.0625 L 34.03125 29.0625 C 34.364776 29.0625 34.438054 29.063201 34.625 29.0625 C 34.474465 28.761404 34.187967 28.16654 34.125 28.0625 C 34.01619 28.0561 33.64564 28.0625 33.03125 28.0625 L 30.84375 28.0625 z M 18.53125 30.125 L 17.125 34.09375 L 15.78125 34.09375 L 15.40625 35.09375 L 18.125 35.09375 L 19.53125 31.125 L 23.8125 31.125 L 23.46875 30.125 L 18.53125 30.125 z "
     id="path3816" />
</svg>

<svg xmlns="http://www.w3.org/2000/svg" viewBox="0 0 64 64"><path d="m0 1l2-1h60l2 1v16h-64" fill="#d8bd6f"/><path d="m0 16h64v46l-2 2h-60l-2-2z" fill="#a07c46" color="#000"/><path d="m0 16h64v46l-2 2h-60l-2-2z" fill="#a6854c"/><g fill="#9c7a44"><path d="m0 62l2 2h30v-24h-32z"/><path d="m64 62l-2 2h-30v-24h32z"/><path d="m0 16h32v24h-32z"/><path d="m64 16h-32v24h32z"/></g><path d="m64 16h-32v-7.847h32z" fill="#d7b871"/><g fill="#d2b164"><path d="m0 16h32v-7.847h-32z"/><path d="m64 1l-2-1h-30v8.153h32z"/></g><path d="m0 1l2-1h30v8.153h-32z" fill="#d7b871"/><path d="m64 18l-2-2 2-1z" fill="#ba9c59"/><path d="m0 18l2-2-2-1" fill="#dbc071"/><g color="#000"><path d="m28.28 20v14.09h2.563v-6.03h2.188c.614 0 .985-.006 1.094 0 .147.243.535 1.025 1.156 2.344l1.625 3.688h2.844l-2.094-4.344c-.512-1.056-.936-1.766-1.281-2.156 1.696-.589 2.531-1.819 2.531-3.688 0-.634-.077-1.195-.25-1.656-.166-.467-.393-.837-.688-1.125-.288-.288-.683-.521-1.156-.688-.467-.173-.944-.28-1.469-.344-.518-.064-1.133-.094-1.844-.094zm13.719 0v7h4v-1l-2.688-.031v-5.938zm5 0v7h1.281v-3h1.375c.305 0 .509-.003.563 0 .073.121.255.503.563 1.156l.813 1.844h1.406l-1.063-2.156c-.254-.523-.454-.869-.625-1.063.841-.292 1.25-.917 1.25-1.844 0-.314-.008-.584-.094-.813-.083-.232-.229-.42-.375-.563-.143-.143-.328-.261-.563-.344-.232-.086-.459-.125-.719-.156-.257-.032-.585-.063-.938-.063zm-41.75.031v2.094h4.094v11.969h2.625v-11.969h4.063v-2.094zm14.344 0l-5.188 14.06h2.719l1.406-3.969h4.938l1.375 3.969h2.688l-5.094-14.06zm34.31 0v1.031h3.563l-3.719 5.094v.844h5.25v-1.031h-3.625l3.594-5.03v-.906zm-5.625.906h1.781c.451 0 .781.088 1 .25.219.162.344.439.344.781 0 .39-.128.635-.344.813-.216.174-.568.281-1.063.281h-1.031c-.425-.003-.64 0-.688 0zm-17.438 1h3c.909 0 1.59.142 2.031.469.442.326.656.84.656 1.531 0 .787-.221 1.36-.656 1.719-.435.352-1.158.531-2.156.531h-1.438c-.858-.006-1.342 0-1.438 0zm-9.813.531c.032.122.629 2.026 1.781 5.719h-3.625z" fill="#efe3b6"/><path d="m43.31 21v4.969h1v-4.938l-1-.031m4.969 0v2.063c.048 0 .262-.003.688 0h.313v-1.125h1.781c.13 0 .233.017.344.031 0-.343-.125-.619-.344-.781-.109-.081-.24-.145-.406-.188h-2.375m-32.25.031v1.094h-4.063v11.969h-1.625v1h2.625v-11.969h4.063v-2.094h-1m6.781 0l4.719 13.06h-2.031l.344 1h2.688l-5.094-14.06h-.625m36.09 0l-.75 1.031h.313l-2.844 3.906h1.469l2.875-4.03v-.906h-1.063m-4 .031v1h1.844l.719-1h-2.563m-2.406.156c.058.209.062.445.063.719 0 .342-.075.617-.188.875.007.053.031.099.031.156 0 .39-.128.635-.344.813-.135.109-.352.172-.594.219.137.202.284.463.469.844l1.063 2.156h-.844l.438 1h1.406l-1.063-2.156c-.254-.523-.454-.869-.625-1.063.841-.292 1.25-.917 1.25-1.844 0-.314-.008-.584-.094-.813-.083-.232-.229-.42-.375-.563-.143-.143-.328-.261-.563-.344-.01-.004-.021.003-.031 0m-14.09.5c.094.166.179.331.25.531.173.461.25 1.023.25 1.656 0 1.869-.835 3.099-2.531 3.688.346.39.769 1.1 1.281 2.156l2.094 4.344h-2.281l.438 1h2.844l-2.094-4.344c-.512-1.056-.936-1.766-1.281-2.156 1.696-.589 2.531-1.819 2.531-3.688 0-.634-.077-1.195-.25-1.656-.166-.467-.393-.837-.688-1.125-.158-.158-.345-.283-.563-.406m-7.563.219v4.25c.067 0 .563 0 1 0v-3.25h3c.635 0 1.154.065 1.563.219-.106-.31-.277-.562-.531-.75-.442-.326-1.122-.469-2.031-.469h-3m-24.594.188v1h3.094v-1h-3.094m14.781.344l-1.844 5.719h1.313l1.188-3.625c-.163-.523-.645-2.049-.656-2.094m27.25 1.531v3h-.281v1h1.281v-3h1.375c.034 0 .031 0 .063 0-.224-.475-.4-.816-.469-.938h-.281c-.425-.003-.64 0-.688 0v-.063h-1m10.719 2.969v.031h-4.125l-.125.156v.844h5.25v-1.031h-1m-16 .031v1h4v-1h-1-3m-12.156 1.063v6.03h-1.563v1h2.563v-6.03h2.188c.334 0 .407.001.594 0-.151-.301-.437-.896-.5-1-.109-.006-.479 0-1.094 0h-2.188m-12.313 2.063l-1.406 3.969h-1.344l-.375 1h2.719l1.406-3.969h4.281l-.344-1h-4.938" fill="#642400" fill-opacity=".14"/></g></svg>
